X:698
T:Planxty Edmond Dodwell
R:
C:O'Carolan
B:O'Neill's 698
D:
Z: 1997 by John Chambers <jc@trillian.mit.edu>
N:"Spirited"
M:C
L:1/8
K:Dm
AAAD EGAB|cdAG FEDC|Ddcd egfed|c2~B2 A2cd|
|efed cAGA|BcdA GEDE|D2 D/E/F C2 Ec|AGFED D2 z2||
||EDCA, CDEG|AAAG EGED|CcBc Adcd|dBcd e2cd|
|efed cBcA|EEED CB,CA,|DDDE FGAB|AGFE D2z2|]
